X: 3
T:Hunsup
M:6/4
L:1/4
S:Atkinson MS (1694) Soc. of Antiquaries Library, Newcastle -U-Tyne
B:Sources of Irish Traditional Music
K:G
G2dB>cd|G2dB>cd|c>dcB>cB|A>BAF>ED|G2dB>cd|G2dB>cd|cgcBgB|(A3A2) A|c>deed
c|B>cddcB|ABGAF2|(G3G2)G||
